X:370
T:Kuhilaat
M:4/4
L:1/8
K:C
S:by Seppo Sillanpaa, from his album "Lamentarola"
C:Seppo Sillanpaa
CEF |"C" G2 G2 EF GE |"G" D2D2 DFED |"C" E2 C2 zFED | E2 C2 zCEF |
|"C" G2 G2 EF GE |"G" D2D2 DFED |"C" E2 C2 zFED | CB,CD EGcB |
|: "F" A6 AB | c2 c2 B2 A2 |"Em" AB G4 EF | G2 B2 G2 GE |
|"Dm" F2 E2 D3C |"G" B,CDE FGFD |"C" E2 C2 zFED |1 CB,CD EGcB:|2  E2 C3 ||
